www/assets/icons/videogame_asset_off.svg

<svg width="24" height="24" viewBox="0 0 24 24" xmlns="http://www.w3.org/2000/svg" fill='currentColor'><path d="M21.495 20.4801L3.11501 2.1001L1.69501 3.5101L3.60501 5.4201C2.84501 5.7001 2.30501 6.4401 2.30501 7.2901V15.2901C2.30501 16.3901 3.20501 17.2901 4.30501 17.2901H15.475L20.085 21.9001L21.495 20.4801ZM9.30501 12.2901V14.2901H7.30501V12.2901H5.30501V10.2901H7.30501V9.1201L10.475 12.2901H9.30501ZM21.005 17.1601C21.765 16.8801 22.305 16.1401 22.305 15.2901V7.2901C22.305 6.1901 21.405 5.2901 20.305 5.2901H9.13501L21.005 17.1601ZM17.805 8.2901C18.635 8.2901 19.305 8.9601 19.305 9.7901C19.305 10.6201 18.635 11.2901 17.805 11.2901C16.975 11.2901 16.305 10.6201 16.305 9.7901C16.305 8.9601 16.975 8.2901 17.805 8.2901Z"/></svg>

<svg xmlns="http://www.w3.org/2000/svg" width="24" height="24" viewBox="0 0 24 24" fill='currentColor'><path d="M21.495 20.48 3.115 2.1l-1.42 1.41 1.91 1.91c-.76.28-1.3 1.02-1.3 1.87v8c0 1.1.9 2 2 2h11.17l4.61 4.61zm-12.19-8.19v2h-2v-2h-2v-2h2V9.12l3.17 3.17zm11.7 4.87c.76-.28 1.3-1.02 1.3-1.87v-8c0-1.1-.9-2-2-2H9.135zm-3.2-8.87c.83 0 1.5.67 1.5 1.5s-.67 1.5-1.5 1.5-1.5-.67-1.5-1.5.67-1.5 1.5-1.5"/></svg>
